X: 1472
T: Neş`em, Emelim, Ruh-u Hazînim
C: Lem´i Atlı
O: Turkey
F: http://compmusic.upf.edu/node/140
N: hicaz--sarki--senginsemai--nesem_emelim--lemi_atli
N: makam= hicaz
N: form= sarki
N: usul= senginsemai = 6/4
M: 6/4
L: 1/16
K: C _7/8B ^f ^c 
Q: 1/4=66
%%MIDI tuningsystem comma53
e3d d3c c2Bc dcBA A6z2  | dcBA GABc d3e =fe(3dcd e6z2  | 
w:  Neş *  em  *  e *  *  me *  *  *  lim   |  rû *  *  *  *  *  *  *  hi  *  ha *  *  *  *  zi  | 
g3f f3e e3d a3g (3agff4fe  | e6z2 e3/2=f/ed e3/2d/cB A4 z4  | 
w:  nim  *  *  *  ze *  de *  len  |  di   SAZ  | 
e3d d3c c2Bc dcBA A6z2  | dcBA GABc d3e =fe(3dcd e6z2  | 
w:  Neş *  em  *  e *  *  me *  *  *  lim   |  rû *  *  *  *  *  *  *  hi  *  ha *  *  *  *  zi  | 
g3f f3e e3d a3g (3agff4fe  | e6z2 e3/2=f/ed e3/2d/cd e4 z4  | 
w:  nim  *  *  *  ze *  de *  len  |  di   SAZ  | 
a4 (3aag(3fef g2a2 _1/4b2{=c'}ba a6{b}ag  | \
w:  Bî ça *  *  *  *  *  re  *  di *  *  *  lin   | 
g6{a}g^1/4f f3e e2{=f}ed d6{B}c2  | 
w:  sab *  *  *  ri *  le  *  *  *  â  | 
g3=f f2{g}fe e3d dcB2 c2d2 e2{f}ed  | \
w:  ra *  *  *  *  *  mı  *  tü *  *  ken  | 
d8 d2e=f edcB c4 z4  | 
w:  di    | 
a4 g=fed c4 d4 dcB4BA  | A8 e3/2=f/ed e3/2d/cd e4 z4  | 
w:  â ra *  *  *  mı  tü ken  |  di   SAZ  | 
a4 (3aag(3fef g2a2 _1/4b2{=c'}ba a6{b}ag  | \
w:  Bî ça *  *  *  *  *  re  *  di *  *  *  lin   | 
g6{a}g^1/4f f3e e2{=f}ed d6{B}c2  | 
w:  sab *  *  *  ri *  le  *  *  *  â  | 
g3=f f2{g}fe e3d dcB2 c2d2 e2{f}ed  | \
w:  ra *  *  *  *  *  mı  *  tü *  *  ken  | 
d8 d2e=f edcB c4 z4  | 
w:  di    | 
a4 g=fed c4 d4 dcB4BA  | A8 a3/2_1/4b/ag f3/2e/fg a4 z4  | 
w:  â ra *  *  *  mı  tü ken  |  di   SAZ  | 
g3a a4 a2g2 a2_1/4ba a4 z4  | g3a _1/4b2=c'2 ba2b agf^e f8  | 
w:  Ben *  den  bu  *  ka *  *  dar   |  si *  *  *  ne *  *  ni  *  *  *  kıs  | 
agfe d4 f4 g2a2 a2gf a2_1/4ba  | a8 z2=c'2 _1/4b2a2 g2f2 e2d2  | 
w:  kan *  *  *  *  ma  ne *  den  |  dir  ah   | 
_1/4b3a a3g g3f f2e2 agf4fe  | e8 a3/2_1/4b/ag f3/2e/fg a4 z4  | 
w:  kıs *  kan *  ma  *  ne *  den  |  dir  SAZ  | 
g3a a4 a2g2 a2_1/4ba a4 z4  | g3a _1/4b2=c'2 ba2b agf^e f8  | 
w:  Ben *  den  bu  *  ka *  *  dar   |  si *  *  *  ne *  *  ni  *  *  *  kıs  | 
agfe d4 f4 g2a2 a2gf a2_1/4ba  | a8 z2=c'2 _1/4b2a2 g2f2 e2d2  | 
w:  kan *  *  *  *  ma  ne *  den  |  dir  ah   | 
_1/4b3a a3g g3f f2e2 agf4fe  | e8 e3/2=f/ed e3/2d/cd e4 z4  | 
w:  kıs *  kan *  ma  *  ne *  den  |  dir  SAZ  | 
a4 (3aag(3fef g2a2 _1/4b2{=c'}ba a6{b}ag  | \
w:  Bî ça *  *  *  *  *  re  *  di *  *  *  lin   | 
g6{a}g^1/4f f3e e2{=f}ed d6{B}c2  | 
w:  sab *  *  *  ri *  le  *  *  *  â  | 
g3=f f2{g}fe e3d dcB2 c2d2 e2{f}ed  | \
w:  ra *  *  *  *  *  mı  *  tü *  *  ken  | 
d8 d2e=f edcB c4 z4  | 
w:  di    | 
a4 g=fed c4 d4 dcB4BA  | A8 e3/2=f/ed e3/2d/cd e4 z4  | 
w:  â ra *  *  *  mı  tü ken  |  di   SAZ  | 
a4 (3aag(3fef g2a2 _1/4b2{=c'}ba a6{b}ag  | \
w:  Bî ça *  *  *  *  *  re  *  di *  *  *  lin   | 
g6{a}g^1/4f f3e e2{=f}ed d6{B}c2  | 
w:  sab *  *  *  ri *  le  *  *  *  â  | 
g3=f f2{g}fe e3d dcB2 c2d2 e2{f}ed  | \
w:  ra *  *  *  *  *  mı  *  tü *  *  ken  | 
d8 d2e=f edcB c4 z4  | 
w:  di    | 
a4 g=fed c4 d4 dcB4BA  | A8 |
w:  â ra *  *  *  mı  tü ken  |  di    | 


